icons/op-file-atom-16.svg

<svg width="16" height="16" viewBox="0 0 16 16" fill="none" xmlns="http://www.w3.org/2000/svg">
<path fill-rule="evenodd" clip-rule="evenodd" d="M3.75 1.5C3.61193 1.5 3.5 1.61193 3.5 1.75V14.25C3.5 14.3881 3.61193 14.5 3.75 14.5H13.25C13.3881 14.5 13.5 14.3881 13.5 14.25V4.66421C13.5 4.59791 13.4737 4.53432 13.4268 4.48744L10.5126 1.57322C10.4657 1.52634 10.4021 1.5 10.3358 1.5H3.75ZM2 1.75C2 0.783502 2.7835 0 3.75 0H10.3358C10.7999 0 11.245 0.184374 11.5732 0.512563L14.4874 3.42678C14.8156 3.75497 15 4.20008 15 4.66421V14.25C15 15.2165 14.2165 16 13.25 16H3.75C2.7835 16 2 15.2165 2 14.25V1.75Z" fill="#24292F"/>
<path fill-rule="evenodd" clip-rule="evenodd" d="M4.99606 6.41866C5.01933 6.0651 5.32481 5.79736 5.67838 5.82062C10.1317 5.82062 11.9932 8.96783 11.9932 12.1348C12.0165 12.4883 11.7487 12.7938 11.3952 12.817C11.0416 12.8403 10.7361 12.5726 10.7128 12.219C10.7128 8.96783 8.81051 7.10098 5.5941 7.10098C5.24054 7.07771 4.97278 6.77222 4.99606 6.41866ZM4.99923 11.9616C4.99923 11.4892 5.38221 11.1062 5.85464 11.1062C6.32708 11.1062 6.71006 11.4892 6.71006 11.9616C6.71006 12.434 6.32708 12.817 5.85464 12.817C5.38221 12.817 4.99923 12.434 4.99923 11.9616ZM5.71243 8.40699C5.36061 8.36491 5.0413 8.61601 4.99922 8.96783C4.95715 9.31965 5.20825 9.63896 5.56006 9.68104C7.13777 9.68104 8.13269 10.6787 8.13269 12.253C8.17477 12.6048 8.49408 12.8559 8.8459 12.8138C9.19772 12.7717 9.44882 12.4524 9.40675 12.1006C9.40675 9.68104 7.99319 8.40699 5.71243 8.40699Z" fill="#1F2328"/>
</svg>

<svg xmlns="http://www.w3.org/2000/svg" width="16" height="16" viewBox="0 0 16 16"><path d="M2 1.75C2 .784 2.783 0 3.75 0h6.586c.464 0 .909.184 1.237.513l2.914 2.914c.329.328.513.773.513 1.237v9.586A1.75 1.75 0 0 1 13.25 16h-9.5A1.75 1.75 0 0 1 2 14.25Zm1.75-.25a.25.25 0 0 0-.25.25v12.5c0 .138.112.25.25.25h9.5a.25.25 0 0 0 .25-.25V4.664a.25.25 0 0 0-.073-.177l-2.914-2.914a.25.25 0 0 0-.177-.073Z"/><path d="M4.996 6.419a.64.64 0 0 1 .682-.598c4.454 0 6.315 3.147 6.315 6.314a.64.64 0 1 1-1.28.084c0-3.251-1.902-5.118-5.119-5.118a.642.642 0 0 1-.598-.682Zm.716 1.988c2.281 0 3.695 1.274 3.695 3.694a.642.642 0 0 1-1.274.152c0-1.574-.995-2.572-2.573-2.572a.641.641 0 1 1 .152-1.274Zm-.713 3.555a.856.856 0 1 1 1.711 0 .856.856 0 0 1-1.711 0Z"/></svg>
